X:1
T:Title
%%score { ( 1 3 ) | ( 2 4 ) }
L:1/8
Q:1/4=81
M:6/8
K:Eb
V:1 treble nm="Grand Piano"
V:3 treble 
V:2 bass 
V:4 bass 
V:1
 G_G=G EFG | [GB]3 [GB]2 [GB] | [Ge][Gd][Gc] [GB]GE |[M:5/8] A-A- A3 |[M:1/8] G | %5
w: Chas.~H.~Gabriel * * * * *|||||
[M:3/4] [DF][_D=E] [=DF][FA] [_EG][DF] | [EG]3 [GB]3 | =A>G Fc cc | B3- [DAB]3 | %9
w: ||||
 [Ge]>[Gd] [Gc][GB] GE | A6 | [Fd]>[Ac] [GB][FA] Fc | B6 | [Ge]>[Gd] [Gc][GB] GE | %14
w: |||||
[M:7/8] F>GA c3 [E_Gc] |[M:3/4] [EGB][Ge] [EG][DB] [DA][DF] | E6 |] %17
w: |||
V:2
 [E,B,E][E,=A,E][E,B,E] [E,G,][E,_A,E][E,B,E] | [E,E]3 [E,E]2 [E,E] | %2
 [E,B,][E,B,][E,C] [E,E][E,B,E][G,B,] |[M:5/8] [F,B,D]-[F,B,D]- [F,B,D]3 |[M:1/8] [E,B,E] | %5
[M:3/4] [B,,B,][B,,B,] [B,,B,][B,,B,] [B,,B,][B,,B,] | [E,B,]3 [E,E]3 | %7
 [F,CE]>[F,B,E] [F,=A,E][F,A,E] [F,A,E][F,A,E] | B,,3 B,3 | [E,B,]>[E,B,] [E,C]E [B,E][G,B,] | %10
 [F,B,D][D,B,] [C,B,] .[B,,B,]3 | [B,,B,]>[B,,B,] .[B,,B,]2 D[A,B,D] | [G,B,E][A,D] [F,D] .[E,E]3 | %13
 [E,B,]>[E,B,] [E,C][E,E] [E,B,E][G,B,] |[M:7/8] [A,CE]>[A,CE][A,CE] [A,E]3 =A,, | %15
[M:3/4] B,,[B,,B,] [B,,B,][B,,F,] [B,,F,][B,,A,] | [E,G,]6 |] %17
V:3
 x6 | x6 | x6 |[M:5/8] x5 |[M:1/8] x |[M:3/4] x6 | x6 | x6 | [B,D]4 z2 | x6 | z F E .D3 | x6 | %12
 z F A .G3 | x6 |[M:7/8] x7 |[M:3/4] x6 | x6 |] %17
V:4
 x6 | x6 | x6 |[M:5/8] x5 |[M:1/8] x |[M:3/4] x6 | x6 | x6 | x6 | z2 z .E,3 | x6 | z2 z .[B,,B,]3 | %12
 x6 | x6 |[M:7/8] x7 |[M:3/4] x6 | x6 |] %17

